X:1
T:St. Martin Orgar, 98.98 D
T:St. Martin Orgar, 98.98 D
T:Charles William Pearce, 1889
T:Public Domain Courtesy of the Cyber Hymnal™
C:Charles William Pearce, 1889
Z:Public Domain
Z:Courtesy of the Cyber Hymnal™
%%score ( 1 2 ) ( 3 4 )
L:1/8
Q:1/4=113
M:none
K:Eb
V:1 treble 
V:2 treble 
V:3 bass 
V:4 bass 
V:1
 E2 | (E[EF]) [EG]2 [B,B]2 [CE]2 | E2 [DF]2 [EG]2 [EB][EB] | [Ec]2 [Fd]2 [Ee]2 [EG]2 | %4
 [EG]2 [EB]2 [DF]2 F2 | [EG]3 [EG] [F=A]2 [FA]2 | [FB]2 [DB]2 [Gc]2 [Fc][Fc] | %7
 [Fd]2 [Gd]2 [Ge]2 [Gc]2 | [Fc]2 (dc) [DB]2 [EB]2 | [Ec]3 [EA] [EF]2 [DF]2 | [EB]3 [EG] E2 EE | %11
 [EA]2 [DB]2 [DG]2 [CG]2 | [DG]2 [D^F]2 [DG]2 [Gd]2 | [Ge]3 [Gc] [GA]2 [FA]2 | %14
 [Fd]3 [FB] [FG]2 [EG][EG] | [Ec]2 (AG) [DF]2 E2 | [CE]2 [B,D]2 [B,E]2 |] %17
V:2
 E2 | E x7 | E2 x6 | x8 | x6 F2 | x8 | x8 | x8 | x2 E2 x4 | x8 | x4 E2 EE | x8 | x8 | x8 | x8 | %15
 x2 E2 x E2 x | x6 |] %17
V:3
 [E,G,]2 | ([E,G,][E,A,]) [E,B,]2 [D,F,]2 [C,G,]2 | [B,,G,]2 [B,,B,]2 [E,B,]2 [G,B,][G,B,] | %3
 A,2 [F,A,]2 [G,B,]2 [E,B,]2 | [C,C]2 B,2 [B,,B,]2 [D,B,]2 | [E,B,]3 [E,B,] [E,C]2 [E,C]2 | %6
 [D,B,]2 [G,B,]2 [E,B,]2 [F,=A,][F,A,] | B,2 [G,=B,]2 C2 (C_B,) | %8
 (=A,G,) [F,A,]2 [B,,B,]2 [G,B,]2 | A,3 [F,C] B,2 [A,B,]2 | [G,B,]3 [E,B,] [A,C]2 [G,B,][G,B,] | %11
 [F,C]2 [B,,B,]2 [E,B,]2 [=A,,=A,]2 | [D,=A,]2 [D,A,]2 [G,,=B,]2 [G,B,]2 | C3 [E,C] [F,C]2 [F,C]2 | %14
 B,3 [D,B,] [E,B,]2 [E,B,][E,B,] | [A,,F,]2 (CB,) [B,,A,]2 [C,G,]2 | [A,,F,]2 [B,,F,]2 [E,G,]2 |] %17
V:4
 x2 | x8 | x8 | A,2 x6 | x2 (G,,A,,) x4 | x8 | x8 | B,2 C2 E,2 x2 | F,2 x6 | A,3 B,2 x3 | x8 | x8 | %12
 x8 | (C,2 D,) x5 | (B,,2 C,) x5 | x2 A,,2 x4 | x6 |] %17

